people/groups-app.svg

<svg xmlns="http://www.w3.org/2000/svg" viewBox="0 0 16 16"><defs><style>.cls-1{fill:#020202}</style></defs><title>groups-app</title><g id="Layer_1" data-name="Layer 1"><path class="cls-1" d="M9.154 5.031a1.521 1.521 0 0 0-.39.686H7.236a1.53 1.53 0 0 0-2.57-.686 1.546 1.546 0 0 0 0 2.184 1.52 1.52 0 0 0 .684.391v1.531a1.517 1.517 0 0 0-.684.391 1.543 1.543 0 1 0 2.571 1.5h1.528a1.53 1.53 0 0 0 2.57.686 1.536 1.536 0 0 0-.685-2.576V7.606a1.516 1.516 0 0 0 .684-.391 1.543 1.543 0 0 0-2.18-2.184zm.684 4.106a1.493 1.493 0 0 0-1.074 1.077H7.236a1.492 1.492 0 0 0-1.074-1.078v-1.53a1.493 1.493 0 0 0 1.074-1.077h1.528a1.493 1.493 0 0 0 1.074 1.077z"/><path class="cls-1" d="M14 .014H2a2 2 0 0 0-2 2v12a2 2 0 0 0 2 2h12a2 2 0 0 0 2-2v-12a2 2 0 0 0-2-2zm0 14H2v-12h3a1 1 0 0 0 1 1h4a1 1 0 0 0 1-1h3z"/></g></svg>

<svg xmlns="http://www.w3.org/2000/svg" viewBox="0 0 16 16"><defs><style>.cls-1{fill:#020202;}</style></defs><title>groups-app</title><g id="Layer_1" data-name="Layer 1"><path class="cls-1" d="M9.154,5.031a1.521,1.521,0,0,0-.39.686H7.236a1.53,1.53,0,0,0-2.57-.686,1.546,1.546,0,0,0,0,2.184,1.52,1.52,0,0,0,.684.391V9.137a1.517,1.517,0,0,0-.684.391,1.543,1.543,0,1,0,2.571,1.5H8.765a1.53,1.53,0,0,0,2.57.686,1.536,1.536,0,0,0-.685-2.576V7.606a1.516,1.516,0,0,0,.684-.391,1.543,1.543,0,0,0-2.18-2.184Zm.684,4.106a1.493,1.493,0,0,0-1.074,1.077H7.236A1.492,1.492,0,0,0,6.162,9.136V7.606A1.493,1.493,0,0,0,7.236,6.529H8.764A1.493,1.493,0,0,0,9.838,7.606Z"/><path class="cls-1" d="M14,.014H2a2,2,0,0,0-2,2v12a2,2,0,0,0,2,2H14a2,2,0,0,0,2-2v-12A2,2,0,0,0,14,.014Zm0,14H2v-12H5a1,1,0,0,0,1,1h4a1,1,0,0,0,1-1h3Z"/></g></svg>
